src/Pure/16/symbolic/mimetypes/x-office-address-book-symbolic.svg

<?xml version="1.0" encoding="UTF-8" standalone="no"?>
<svg
   height="16"
   width="16"
   version="1.1"
   id="svg1"
   sodipodi:docname="x-office-address-book-symbolic.svg"
   inkscape:version="1.4.2 (ebf0e940d0, 2025-05-08)"
   xmlns:inkscape="http://www.inkscape.org/namespaces/inkscape"
   xmlns:sodipodi="http://sodipodi.sourceforge.net/DTD/sodipodi-0.dtd"
   xmlns="http://www.w3.org/2000/svg"
   xmlns:svg="http://www.w3.org/2000/svg">
  <defs
     id="defs1">
     <style
        id="current-color-scheme"
        type="text/css">
        .ColorScheme-Text { color:#363636; }
        .ColorScheme-NeutralText { color:#f67400; }
        .ColorScheme-PositiveText { color:#37c837; }
        .ColorScheme-NegativeText { color:#f44336; }
        .ColorScheme-Highlight { color:#3daee9; }
     </style>
  </defs>
  <sodipodi:namedview
     id="namedview1"
     pagecolor="#ffffff"
     bordercolor="#000000"
     borderopacity="0.25"
     inkscape:showpageshadow="2"
     inkscape:pageopacity="0.0"
     inkscape:pagecheckerboard="0"
     inkscape:deskcolor="#d1d1d1"
     inkscape:zoom="49.75"
     inkscape:cx="7.9899497"
     inkscape:cy="8"
     inkscape:window-width="1920"
     inkscape:window-height="1011"
     inkscape:window-x="0"
     inkscape:window-y="0"
     inkscape:window-maximized="1"
     inkscape:current-layer="svg1" />
  <path
     id="path1"
     style="fill:currentColor"
     class="ColorScheme-Text"
     d="M 3 1 C 2.446 1 2 1.446 2 2 L 2 14 C 2 14.554 2.446 15 3 15 L 13 15 C 13.554 15 14 14.554 14 14 L 14 2 C 14 1.446 13.554 1 13 1 L 3 1 z M 4 2 L 12.5 2 C 12.777 2 13 2.223 13 2.5 L 13 13.5 C 13 13.777 12.777 14 12.5 14 L 4 14 L 4 2 z M 8.4882812 5.0019531 C 8.0062813 4.9699531 7.5358594 5.2528125 7.2558594 5.6328125 C 6.9838594 6.1248125 7.2051562 6.7095156 7.0351562 7.2285156 C 6.9311562 7.5985156 7.0356406 7.995625 7.3066406 8.265625 C 7.5376406 8.556625 7.8230625 8.9380781 7.6640625 9.3300781 C 7.4350625 9.7710781 6.9765469 10.029625 6.5605469 10.265625 C 6.4505469 10.309625 6.3094063 10.386516 6.1914062 10.478516 C 6.0864062 10.506516 6.0019531 10.588125 6.0019531 10.703125 L 6.0019531 11.75 C 6.0019531 11.888 6.1119531 12 6.2519531 12 L 10.751953 12 A 0.25 0.25 0 0 0 11.001953 11.75 L 11.001953 10.46875 C 10.444953 10.16575 9.8169062 9.8751094 9.5039062 9.2871094 C 9.3979063 8.8251094 9.7228125 8.4196094 10.007812 8.0996094 C 10.288813 7.7416094 10.178078 7.2700938 10.080078 6.8710938 C 10.038078 6.4290937 10.180563 5.9049688 9.8515625 5.5429688 C 9.4945625 5.1809687 8.9802813 5.0339531 8.4882812 5.0019531 z " />
</svg>

<svg height="16" width="16" xmlns="http://www.w3.org/2000/svg"><path d="M3 1c-.554 0-1 .446-1 1v12c0 .554.446 1 1 1h10c.554 0 1-.446 1-1V2c0-.554-.446-1-1-1zm1 1h8.5c.277 0 .5.223.5.5v11c0 .277-.223.5-.5.5H4zm4.489 3.002c-.482-.032-.953.25-1.233.63-.272.492-.05 1.078-.22 1.597-.104.37 0 .767.271 1.037.231.291.516.672.357 1.064-.229.441-.687.7-1.103.936-.11.044-.252.121-.37.213-.105.028-.19.109-.19.224v1.047c0 .138.11.25.25.25h4.5a.25.25 0 0 0 .25-.25v-1.281c-.557-.303-1.184-.594-1.497-1.182-.106-.462.219-.867.504-1.187.281-.358.17-.83.072-1.229-.042-.442.101-.966-.228-1.328-.357-.362-.872-.509-1.364-.541z" fill="#363636" overflow="visible" style="isolation:auto;mix-blend-mode:normal;marker:none" color="#000"/></svg>
